icons/user-voice-fill.svg

<svg xmlns="http://www.w3.org/2000/svg" width="24" height="24" fill="none"><g clip-path="url(#a)"><g><path fill="#121212" d="M1 22C1 19.8783 1.84285 17.8434 3.34315 16.3431C4.84344 14.8429 6.87827 14 9 14C11.1217 14 13.1566 14.8429 14.6569 16.3431C16.1571 17.8434 17 19.8783 17 22H1ZM9 13C5.685 13 3 10.315 3 7C3 3.685 5.685 0.999997 9 0.999997C12.315 0.999997 15 3.685 15 7C15 10.315 12.315 13 9 13ZM18.246 3.184C18.7454 4.39416 19.0016 5.69083 19 7C19.0016 8.30916 18.7454 9.60584 18.246 10.816L16.569 9.596C16.8552 8.76043 17.0008 7.8832 17 7C17.0011 6.11685 16.8558 5.23962 16.57 4.404L18.246 3.184ZM21.548 0.783997C22.5062 2.71582 23.0032 4.84359 23 7C23 9.233 22.477 11.344 21.548 13.216L19.903 12.02C20.6282 10.446 21.0025 8.73306 21 7C21 5.208 20.607 3.507 19.903 1.98L21.548 0.783997Z"/></g></g><defs><clipPath id="a"><rect width="24" height="24" fill="white"/></clipPath></defs></svg>

<svg width="24" height="24" fill="none" xmlns="http://www.w3.org/2000/svg"><g clip-path="url(#a)"><path d="M1 22a8 8 0 0 1 16 0H1Zm8-9c-3.315 0-6-2.685-6-6s2.685-6 6-6 6 2.685 6 6-2.685 6-6 6Zm9.246-9.816c.5 1.21.756 2.507.754 3.816a9.972 9.972 0 0 1-.754 3.816l-1.677-1.22A7.989 7.989 0 0 0 17 7a7.991 7.991 0 0 0-.43-2.596l1.676-1.22Zm3.302-2.4A13.942 13.942 0 0 1 23 7c0 2.233-.523 4.344-1.452 6.216l-1.645-1.196A11.955 11.955 0 0 0 21 7a11.96 11.96 0 0 0-1.097-5.02L21.548.784Z" /></g><defs><clipPath id="a"><path fill="#fff" d="M0 0h24v24H0z"/></clipPath></defs></svg>
